X: 30791
T: Oswestry Wake
R: jig
M: 6/8
K: Gmajor
efg f2e|dcB A2G|gfe f2g|a3a2d|
efg f2e|dcB ABc|BGB AFA|G3 G2d:|
|:Bcd ded|dBG dBG|ABA c2d|e3 edc|
Bcd def|g3 d2c|BGB AFA|G3 G2d:|
|:gdB gdB|gdB A2G|gfe f2g|a3a2f|
gba gfe|fag fed|egB A2G|G3 G2d:|

